**harm	**harte	**timestamp	**phrase	**leadinstrument	**kern
*M4/4	*M4/4	*	*	*	*
*G:	*G:	*	*	*	*G:
=1	=1	=1	=1	=1	=1
*>A_intro	*>A_intro	*>A_intro	*>A_intro	*>A_intro	*>A_intro
1IV	C:maj	0	newline	guitar	1C 1e 1g
=2	=2	=2	=2	=2	=2
1IV	C:maj	1.711	.	guitar	1C 1e 1g
=3	=3	=3	=3	=3	=3
1vi	E:min	3.422	.	guitar	1E 1g 1b
=4	=4	=4	=4	=4	=4
1vi	E:min	5.133	.	guitar	1E 1g 1b
=5	=5	=5	=5	=5	=5
1IV	C:maj	6.844	newline	guitar	1C 1e 1g
=6	=6	=6	=6	=6	=6
1IV	C:maj	8.459	.	guitar	1C 1e 1g
=7	=7	=7	=7	=7	=7
1vi	E:min	10.074	.	guitar	1E 1g 1b
=8	=8	=8	=8	=8	=8
1vi	E:min	11.688	.	guitar	1E 1g 1b
=9	=9	=9	=9	=9	=9
*>B_verse	*>B_verse	*>B_verse	*>B_verse	*>B_verse	*>B_verse
1IV	C:maj	13.303	newline	voice	1C 1e 1g
=10	=10	=10	=10	=10	=10
1IV	C:maj	14.934	.	voice	1C 1e 1g
=11	=11	=11	=11	=11	=11
1vi	E:min	16.564	.	voice	1E 1g 1b
=12	=12	=12	=12	=12	=12
1vi	E:min	18.194	.	voice	1E 1g 1b
=13	=13	=13	=13	=13	=13
1IV	C:maj	19.825	newline	voice	1C 1e 1g
=14	=14	=14	=14	=14	=14
1IV	C:maj	21.474	.	voice	1C 1e 1g
=15	=15	=15	=15	=15	=15
1V	D:maj	23.123	.	voice	1D 1f# 1a
=16	=16	=16	=16	=16	=16
1V	D:maj	24.772	.	voice	1D 1f# 1a
=17	=17	=17	=17	=17	=17
1IV	C:maj	26.421	newline	voice	1C 1e 1g
=18	=18	=18	=18	=18	=18
1IV	C:maj	28.06	.	voice	1C 1e 1g
=19	=19	=19	=19	=19	=19
1I	G:maj	29.699	.	voice	1G 1b 1dd
=20	=20	=20	=20	=20	=20
1V	D:maj	31.338	.	voice	1D 1f# 1a
=21	=21	=21	=21	=21	=21
*>C_chorus	*>C_chorus	*>C_chorus	*>C_chorus	*>C_chorus	*>C_chorus
1VI	E:maj	32.977	newline	voice	1E 1g# 1b
=22	=22	=22	=22	=22	=22
2I	G:maj	34.65	.	voice	2G 2b 2dd
2V	D:maj	35.487	.	voice	2D 2f# 2a
=23	=23	=23	=23	=23	=23
1VI	E:maj	36.324	.	voice	1E 1g# 1b
=24	=24	=24	=24	=24	=24
2I	G:maj	37.998	.	voice	2G 2b 2dd
2V	D:maj	38.835	.	voice	2D 2f# 2a
=25	=25	=25	=25	=25	=25
1II	A:maj	39.672	newline	voice	1A 1cc# 1ee
=26	=26	=26	=26	=26	=26
2I	G:maj	41.321	.	voice	2G 2b 2dd
2V	D:maj	42.145	.	voice	2D 2f# 2a
=27	=27	=27	=27	=27	=27
1III7	B:7	42.97	.	voice	1B 1dd# 1ff# 1aa
=28	=28	=28	=28	=28	=28
1V	D:maj	44.618	.	voice	1D 1f# 1a
=29	=29	=29	=29	=29	=29
2V	D:maj	46.267	newline	voice	2D 2f# 2a
2II	A:maj	47.095	.	voice	2A 2cc# 2ee
=30	=30	=30	=30	=30	=30
1VI	E:maj	47.923	.	voice	1E 1g# 1b
=31	=31	=31	=31	=31	=31
2VI	E:maj	49.579	.	voice	2E 2g# 2b
2Ve	D:maj/2	50.406	.	voice	2D 2f# 2a
=32	=32	=32	=32	=32	=32
*>B_verse	*>B_verse	*>B_verse	*>B_verse	*>B_verse	*>B_verse
1IV	C:maj	51.234	newline	voice	1C 1e 1g
=33	=33	=33	=33	=33	=33
1IV	C:maj	52.854	.	voice	1C 1e 1g
=34	=34	=34	=34	=34	=34
1vi	E:min	54.474	.	voice	1E 1g 1b
=35	=35	=35	=35	=35	=35
1vi	E:min	56.094	.	voice	1E 1g 1b
=36	=36	=36	=36	=36	=36
1IV	C:maj	57.714	newline	voice	1C 1e 1g
=37	=37	=37	=37	=37	=37
1IV	C:maj	59.34	.	voice	1C 1e 1g
=38	=38	=38	=38	=38	=38
1V	D:maj	60.967	.	voice	1D 1f# 1a
=39	=39	=39	=39	=39	=39
1V	D:maj	62.593	.	voice	1D 1f# 1a
=40	=40	=40	=40	=40	=40
1IV	C:maj	64.22	newline	voice	1C 1e 1g
=41	=41	=41	=41	=41	=41
1IV	C:maj	65.876	.	voice	1C 1e 1g
=42	=42	=42	=42	=42	=42
1I	G:maj	67.532	.	voice	1G 1b 1dd
=43	=43	=43	=43	=43	=43
1V	D:maj	69.188	.	voice	1D 1f# 1a
=44	=44	=44	=44	=44	=44
*>C2_chorus	*>C2_chorus	*>C2_chorus	*>C2_chorus	*>C2_chorus	*>C2_chorus
1VI	E:maj	70.844	newline	voice	1E 1g# 1b
=45	=45	=45	=45	=45	=45
2I	G:maj	72.486	.	voice	2G 2b 2dd
2V	D:maj	73.307	.	voice	2D 2f# 2a
=46	=46	=46	=46	=46	=46
1VI	E:maj	74.128	.	voice	1E 1g# 1b
=47	=47	=47	=47	=47	=47
2I	G:maj	75.769	.	voice	2G 2b 2dd
2V	D:maj	76.59	.	voice	2D 2f# 2a
=48	=48	=48	=48	=48	=48
1II	A:maj	77.411	newline	voice	1A 1cc# 1ee
=49	=49	=49	=49	=49	=49
2I	G:maj	79.065	.	voice	2G 2b 2dd
2V	D:maj	79.892	.	voice	2D 2f# 2a
=50	=50	=50	=50	=50	=50
1III7	B:7	80.719	.	voice	1B 1dd# 1ff# 1aa
=51	=51	=51	=51	=51	=51
1V	D:maj	82.373	.	voice	1D 1f# 1a
=52	=52	=52	=52	=52	=52
2V	D:maj	84.027	newline	voice	2D 2f# 2a
2II	A:maj	84.84	.	voice	2A 2cc# 2ee
=53	=53	=53	=53	=53	=53
1VI	E:maj	85.652	.	voice	1E 1g# 1b
=54	=54	=54	=54	=54	=54
2VI	E:maj	87.277	.	voice	2E 2g# 2b
2II	A:maj	88.089	.	voice	2A 2cc# 2ee
=55	=55	=55	=55	=55	=55
1VI	E:maj	88.902	.	voice	1E 1g# 1b
=56	=56	=56	=56	=56	=56
1VI	E:maj	90.526	.	voice	1E 1g# 1b
=57	=57	=57	=57	=57	=57
*>B_solo	*>B_solo	*>B_solo	*>B_solo	*>B_solo	*>B_solo
1IV	C:maj	92.151	newline	guitar	1C 1e 1g
=58	=58	=58	=58	=58	=58
1IV	C:maj	93.807	.	guitar	1C 1e 1g
=59	=59	=59	=59	=59	=59
1vi	E:min	95.464	.	guitar	1E 1g 1b
=60	=60	=60	=60	=60	=60
1vi	E:min	97.12	.	guitar	1E 1g 1b
=61	=61	=61	=61	=61	=61
1IV	C:maj	98.776	newline	guitar	1C 1e 1g
=62	=62	=62	=62	=62	=62
1IV	C:maj	100.419	.	guitar	1C 1e 1g
=63	=63	=63	=63	=63	=63
1V	D:maj	102.062	.	guitar	1D 1f# 1a
=64	=64	=64	=64	=64	=64
1V	D:maj	103.706	.	guitar	1D 1f# 1a
=65	=65	=65	=65	=65	=65
1IV	C:maj	105.349	newline	guitar	1C 1e 1g
=66	=66	=66	=66	=66	=66
1IV	C:maj	106.956	.	guitar	1C 1e 1g
=67	=67	=67	=67	=67	=67
1I	G:maj	108.564	.	guitar	1G 1b 1dd
=68	=68	=68	=68	=68	=68
1V	D:maj	110.172	.	guitar	1D 1f# 1a
=69	=69	=69	=69	=69	=69
*>C3_chorus	*>C3_chorus	*>C3_chorus	*>C3_chorus	*>C3_chorus	*>C3_chorus
1VI	E:maj	111.78	newline	voice	1E 1g# 1b
=70	=70	=70	=70	=70	=70
2I	G:maj	113.424	.	voice	2G 2b 2dd
2V	D:maj	114.246	.	voice	2D 2f# 2a
=71	=71	=71	=71	=71	=71
1VI	E:maj	115.069	.	voice	1E 1g# 1b
=72	=72	=72	=72	=72	=72
2I	G:maj	116.713	.	voice	2G 2b 2dd
2V	D:maj	117.535	.	voice	2D 2f# 2a
=73	=73	=73	=73	=73	=73
1II	A:maj	118.358	newline	voice	1A 1cc# 1ee
=74	=74	=74	=74	=74	=74
2I	G:maj	120.016	.	voice	2G 2b 2dd
2V	D:maj	120.845	.	voice	2D 2f# 2a
=75	=75	=75	=75	=75	=75
1III7	B:7	121.674	.	voice	1B 1dd# 1ff# 1aa
=76	=76	=76	=76	=76	=76
1V	D:maj	123.332	.	voice	1D 1f# 1a
=77	=77	=77	=77	=77	=77
2V	D:maj	124.99	newline	voice	2D 2f# 2a
2II	A:maj	125.809	.	voice	2A 2cc# 2ee
=78	=78	=78	=78	=78	=78
1VI	E:maj	126.627	.	voice	1E 1g# 1b
=79	=79	=79	=79	=79	=79
2I	G:maj	128.263	.	voice	2G 2b 2dd
2V	D:maj	129.082	.	voice	2D 2f# 2a
=80	=80	=80	=80	=80	=80
1VI	E:maj	129.9	.	voice	1E 1g# 1b
=81	=81	=81	=81	=81	=81
2I	G:maj	131.537	.	voice	2G 2b 2dd
2V	D:maj	132.355	.	voice	2D 2f# 2a
=82	=82	=82	=82	=82	=82
1II	A:maj	133.173	newline	voice	1A 1cc# 1ee
=83	=83	=83	=83	=83	=83
2I	G:maj	134.799	.	voice	2G 2b 2dd
2V	D:maj	135.613	.	voice	2D 2f# 2a
=84	=84	=84	=84	=84	=84
1III7	B:7	136.426	.	voice	1B 1dd# 1ff# 1aa
=85	=85	=85	=85	=85	=85
1V	D:maj	138.052	.	voice	1D 1f# 1a
=86	=86	=86	=86	=86	=86
2V	D:maj	139.679	.	voice	2D 2f# 2a
2II	A:maj	140.492	.	voice	2A 2cc# 2ee
=87	=87	=87	=87	=87	=87
*>D_outro	*>D_outro	*>D_outro	*>D_outro	*>D_outro	*>D_outro
1VI	E:maj	141.305	newline	voice	1E 1g# 1b
=88	=88	=88	=88	=88	=88
2VI	E:maj	142.935	.	voice	2E 2g# 2b
2II	A:maj	143.75	.	voice	2A 2cc# 2ee
=89	=89	=89	=89	=89	=89
1VI	E:maj	144.565	.	voice	1E 1g# 1b
=90	=90	=90	=90	=90	=90
2VI	E:maj	146.195	.	voice	2E 2g# 2b
2II	A:maj	147.01	.	voice	2A 2cc# 2ee
=91	=91	=91	=91	=91	=91
1VI	E:maj	147.825	.	voice	1E 1g# 1b
=92	=92	=92	=92	=92	=92
2VI	E:maj	149.455	.	voice	2E 2g# 2b
2II	A:maj	150.27	.	voice	2A 2cc# 2ee
=93	=93	=93	=93	=93	=93
1VI	E:maj	151.084	newline	voice	1E 1g# 1b
=94	=94	=94	=94	=94	=94
2VI	E:maj	152.712	.	voice	2E 2g# 2b
2II	A:maj	153.526	.	voice	2A 2cc# 2ee
=95	=95	=95	=95	=95	=95
1VI	E:maj	154.339	.	voice	1E 1g# 1b
=96	=96	=96	=96	=96	=96
2VI	E:maj	155.967	.	voice	2E 2g# 2b
2II	A:maj	156.781	.	voice	2A 2cc# 2ee
=97	=97	=97	=97	=97	=97
1VI	E:maj	157.594	newline	voice	1E 1g# 1b
=98	=98	=98	=98	=98	=98
2VI	E:maj	159.242	.	voice	2E 2g# 2b
2II	A:maj	160.066	.	voice	2A 2cc# 2ee
=99	=99	=99	=99	=99	=99
1VI	E:maj	160.89	.	voice	1E 1g# 1b
=100	=100	=100	=100	=100	=100
2VI	E:maj	162.537	.	voice	2E 2g# 2b
2II	A:maj	163.361	.	voice	2A 2cc# 2ee
=101	=101	=101	=101	=101	=101
1VI	E:maj	164.185	newline	voice	1E 1g# 1b
=102	=102	=102	=102	=102	=102
2VI	E:maj	164.992	.	voice	2E 2g# 2b
2II	A:maj	165.396	.	voice	2A 2cc# 2ee
=103	=103	=103	=103	=103	=103
1VI	E:maj	165.799	.	voice	1E 1g# 1b
=104	=104	=104	=104	=104	=104
2VI	E:maj	166.607	.	voice	2E 2g# 2b
2II	A:maj	167.01	.	voice	2A 2cc# 2ee
=105	=105	=105	=105	=105	=105
1VI	E:maj	167.414	newline	voice	1E 1g# 1b
1r;	N	175.125	.	r	1r;
*-	*-	*-	*-	*-	*-
!!!OTL: Happy Man
!!!COC: The Greg Kihn Band
!!!BillboardChartDate: 1982/05/22
!!!BillboardPeak: 62
!!!BillboardWeeksOnChart: 7
!!!SampleTargetRank: 88
!!!SampleActualRank: 86
!!!SampleID#: 1246
!!!RDF**harmony: **recip + pitch class of root + harmonic quality
!!!RDF**harte: Chris Harte's syntax, used by MIREX
!!!RDF**phrase: newline = linebreak in original McGill transcription
!!!RDF**timestamp: McGill audio timestamp in seconds
!!!RDF**leadinstrument: original McGill primary instrumentation annotation
!!!RDT: 2017/01/12/
!!!ENC: Nathaniel Condit-Schultz
!!!EST: Awating manual error checking and editing.
